docs/img/promo/promo-car-star-2-mob.svg

<svg width="182" height="357" fill="none" xmlns="http://www.w3.org/2000/svg"><path d="M175.949 87.093c7.856-11.914 25.903-9.92 30.969 3.422l18.64 49.086a22.495 22.495 0 008.215 10.504l33.8 23.431c12.113 8.398 9.054 27.093-5.104 31.192l-36.534 10.578a22.501 22.501 0 00-12.187 8.726l-30.858 44.167c-8.39 12.008-26.939 9.009-31.118-5.03l-14.444-48.526a22.498 22.498 0 00-10.217-13.009l-33.993-19.856c-13.09-7.646-10.928-27.185 3.516-31.786l40.319-12.842a22.492 22.492 0 0011.955-9.052l27.041-41.005z" stroke="#fff" stroke-opacity=".6" stroke-width="5"/><path d="M180.558 117.02c3.367-5.106 11.101-4.252 13.273 1.466l13.961 36.769a12.504 12.504 0 004.565 5.835l26.721 18.524c5.191 3.599 3.88 11.611-2.187 13.368l-29.46 8.529a12.503 12.503 0 00-6.77 4.848l-23.271 33.307c-3.595 5.146-11.545 3.861-13.336-2.156l-11.036-37.076a12.502 12.502 0 00-5.676-7.227l-27.646-16.149c-5.61-3.276-4.684-11.65 1.507-13.622l32.18-10.25a12.496 12.496 0 006.642-5.029l20.533-31.137z" stroke="#fff" stroke-opacity=".8" stroke-width="5"/><path d="M180.213 55.406c7.856-11.914 25.903-9.92 30.969 3.422l27.394 72.141a22.502 22.502 0 008.216 10.504l52.321 36.271c12.113 8.398 9.054 27.093-5.104 31.192l-57.641 16.689a22.5 22.5 0 00-12.187 8.725l-45.645 65.332c-8.39 12.009-26.939 9.01-31.119-5.03l-21.637-72.689a22.496 22.496 0 00-10.216-13.009l-54.076-31.587c-13.09-7.646-10.929-27.185 3.515-31.785l62.989-20.063a22.5 22.5 0 0011.955-9.052l40.266-61.06z" stroke="#fff" stroke-opacity=".2" stroke-width="5"/></svg>

<svg width="182" height="357" viewBox="0 0 182 357" fill="none" xmlns="http://www.w3.org/2000/svg">
<path d="M175.949 87.093C183.805 75.179 201.852 77.1729 206.918 90.5147L225.558 139.601C227.172 143.852 230.036 147.515 233.773 150.105L267.573 173.536C279.686 181.934 276.627 200.629 262.469 204.728L225.935 215.306C220.995 216.736 216.694 219.816 213.748 224.032L182.89 268.199C174.5 280.207 155.951 277.208 151.772 263.169L137.328 214.643C135.697 209.166 132.045 204.515 127.111 201.634L93.1182 181.778C80.0285 174.132 82.1895 154.593 96.6337 149.992L136.953 137.15C141.856 135.589 146.076 132.394 148.908 128.098L175.949 87.093Z" stroke="white" stroke-opacity="0.6" stroke-width="5"/>
<path d="M180.558 117.02C183.925 111.914 191.659 112.768 193.831 118.486L207.792 155.255C208.689 157.616 210.281 159.651 212.357 161.09L239.078 179.614C244.269 183.213 242.958 191.225 236.891 192.982L207.431 201.511C204.687 202.306 202.297 204.017 200.661 206.359L177.39 239.666C173.795 244.812 165.845 243.527 164.054 237.51L153.018 200.434C152.112 197.392 150.083 194.808 147.342 193.207L119.696 177.058C114.086 173.782 115.012 165.408 121.203 163.436L153.383 153.186C156.107 152.319 158.451 150.544 160.025 148.157L180.558 117.02Z" stroke="white" stroke-opacity="0.8" stroke-width="5"/>
<path d="M180.213 55.4062C188.069 43.4921 206.116 45.4861 211.182 58.8279L238.576 130.969C240.19 135.22 243.055 138.882 246.792 141.473L299.113 177.744C311.226 186.142 308.167 204.837 294.009 208.936L236.368 225.625C231.428 227.055 227.127 230.134 224.181 234.35L178.536 299.682C170.146 311.691 151.597 308.692 147.417 294.652L125.78 221.963C124.15 216.487 120.498 211.835 115.564 208.954L61.4877 177.367C48.398 169.721 50.559 150.182 65.0031 145.582L127.992 125.519C132.895 123.957 137.114 120.763 139.947 116.467L180.213 55.4062Z" stroke="white" stroke-opacity="0.2" stroke-width="5"/>
</svg>
